X:868
T:Reel 868
M:4/4
K:Dmaj
L:1/8
AG|FDEC A,B,CD|EC (3CCC EFGE|FDF (3DDD FDEC|A,B,CD E2AG|FDED  (3CA,A, E>A, (3CDE |F>D (3DDD A,2DE|FDED FDEC|A,B,CD EGFD|E|DFAc BABd|cBcd BGFD|ECA,B, CEBG| (3FED EC A,B, (3CB,A, |Addc dcBA|cd (3cde fdec| (3cBA Bc dBcG|FDEC D2|
